runWith moderato

p08 p0 p1 p2 = d08 $ do
  let (motion, prog) = (snd p0, inKey p1)
  id $
    stack [silence
      ,phrase 1 "mp"
      ,modwheel (slow 4 $ lfo saw 0 0.3)
      ] |* vel p2 #ch 08
        -- |- note 12
        |+| prog 4 (fst motion
         +| "0*32"
          ) |+ note (snd motion)
      -- >> silence

p09 p0 = d09 $ do
  id $
    stack [silence
      ,ruismk crotchet "bd hh"
      ,semiquaver <~ (stut 2 1.5 semiquaver $ ruismk minim "~ sn" )
      ] |* vel p0 #ch 09
      -- >> silence

p10 p0 = d10 $ do
  id $
    stack [silence
      ,pullBy crotchet $ hats minim "h"
      ] |* vel p0 #ch 10
        |+ humanise 0.2
        |+ vel 0.1
      -- >> silence

p12 p0 p1 p2 = d12 $ do
  let (motion, prog) = (snd p0, inKey p1)
  let lfo1 = slow 5 $ 0.5 <~ lfo sine 0.01 0.11
  id $
    slow 2 $ 
    stack [silence
      ,phrase 1 "mp"
      ,modwheel (slow 16 $ lfo saw 0 1)
      ] |* vel p2 #ch 12
        -- |- note 12
        |+| prog 4 (fst motion
          -- +| "-3"
         -- +| "<0 0 0 -2> <3 4>"
         -- +| "[0 2 4 7 9 7 4 2]*4"
         -- +| "[0 7 14 7]*8"
         +| "0 4 3 5"
         +| "[0 . 3 4]*16"
          ) |+ note (snd motion)
      -- >> silence

hush
